X:55
T:Reel 55
M:4/4
K:Gmaj
L:1/8
dc|BGAF GFEF|DEFG ABcA|BGAF DEDC| (3EFE DC B,2D2|B,2GF ECA,D|B,DGB cedc|BGAF  (3gge dc|BGAF G2|Bc|dBec dBge|dB (3BBB e2ef|gece dege|dcBc A2Bc|dBec BcdB|gedB A2ga|bgaf gfed|edef gfge|
